Sources/FrostedUI/Resources/Icons.xcassets/instagramSize12.imageset/instagram-size-12.svg

<svg
  width="12"
  height="12"
  viewBox="0 0 12 12"
  fill="none"
  xmlns="http://www.w3.org/2000/svg"
  data-fui-icon="true"
>
  <path
    d="M6 2.10587C7.26825 2.10587 7.4185 2.11062 7.91945 2.1335C8.22055 2.13714 8.51885 2.19249 8.8012 2.29716C9.00755 2.37331 9.1942 2.49475 9.34745 2.65254C9.50525 2.80578 9.6267 2.99244 9.70285 3.1988C9.8075 3.48118 9.86285 3.77944 9.8665 4.08057C9.8894 4.58148 9.89415 4.73175 9.89415 6C9.89415 7.26825 9.8894 7.4185 9.8665 7.91945C9.86285 8.22055 9.8075 8.51885 9.70285 8.8012C9.6238 9.0061 9.50275 9.1922 9.34745 9.34745C9.1922 9.50275 9.0061 9.6238 8.8012 9.70285C8.51885 9.8075 8.22055 9.86285 7.91945 9.8665C7.4185 9.8894 7.26825 9.89415 6 9.89415C4.73175 9.89415 4.58148 9.8894 4.08057 9.8665C3.7793 9.8629 3.48088 9.80755 3.19836 9.70285C2.99216 9.62665 2.80566 9.5052 2.65254 9.34745C2.49475 9.1942 2.37331 9.00755 2.29716 8.8012C2.19249 8.51885 2.13714 8.22055 2.1335 7.91945C2.11062 7.4185 2.10587 7.26825 2.10587 6C2.10587 4.73175 2.11062 4.58148 2.1335 4.08057C2.13714 3.77944 2.19249 3.48118 2.29716 3.1988C2.37331 2.99244 2.49475 2.80578 2.65254 2.65254C2.80578 2.49475 2.99244 2.37331 3.1988 2.29716C3.48118 2.19249 3.77944 2.13714 4.08057 2.1335C4.58148 2.11062 4.73175 2.10587 6 2.10587ZM6 1.25C4.71016 1.25 4.54823 1.25561 4.04171 1.2785C3.64768 1.28636 3.25784 1.36097 2.88875 1.49916C2.57165 1.61855 2.28443 1.80571 2.04714 2.04757C1.80548 2.28478 1.61848 2.57185 1.49916 2.88875C1.36112 3.25786 1.28665 3.6477 1.27893 4.04171C1.25518 4.54823 1.25 4.71016 1.25 6C1.25 7.28985 1.25561 7.45175 1.2785 7.9583C1.28636 8.3523 1.36097 8.74215 1.49916 9.11125C1.61855 9.42835 1.80571 9.71555 2.04757 9.95285C2.28478 10.1945 2.57185 10.3815 2.88875 10.5008C3.25786 10.6389 3.6477 10.7134 4.04171 10.7211C4.54823 10.7448 4.71016 10.75 6 10.75C7.28985 10.75 7.45175 10.7444 7.9583 10.7215C8.3523 10.7137 8.74215 10.639 9.11125 10.5008C9.4269 10.3788 9.71355 10.1922 9.95285 9.95285C10.1922 9.71355 10.3788 9.4269 10.5008 9.11125C10.6389 8.74215 10.7134 8.3523 10.7211 7.9583C10.7448 7.45175 10.75 7.28985 10.75 6C10.75 4.71016 10.7444 4.54823 10.7215 4.04171C10.7137 3.64768 10.639 3.25784 10.5008 2.88875C10.3814 2.57165 10.1943 2.28443 9.95245 2.04714C9.7152 1.80548 9.42815 1.61848 9.11125 1.49916C8.74215 1.36112 8.3523 1.28665 7.9583 1.27893C7.45175 1.25518 7.28985 1.25 6 1.25ZM6 3.56066C5.51755 3.56066 5.0459 3.70373 4.64477 3.97176C4.24362 4.2398 3.93097 4.62078 3.74635 5.0665C3.56172 5.51225 3.51341 6.0027 3.60753 6.4759C3.70166 6.9491 3.93398 7.38375 4.27513 7.72485C4.61628 8.066 5.0509 8.29835 5.5241 8.39245C5.9973 8.4866 6.48775 8.4383 6.9335 8.25365C7.37925 8.06905 7.7602 7.75635 8.02825 7.35525C8.2963 6.9541 8.43935 6.48245 8.43935 6C8.43935 5.35305 8.18235 4.73259 7.72485 4.27513C7.2674 3.81766 6.64695 3.56066 6 3.56066ZM6 7.5835C5.6868 7.5835 5.38065 7.4906 5.12025 7.3166C4.85987 7.1426 4.65691 6.8953 4.53706 6.60595C4.41721 6.31665 4.38585 5.99825 4.44695 5.6911C4.50805 5.3839 4.65886 5.10175 4.88031 4.88031C5.10175 4.65886 5.3839 4.50805 5.6911 4.44695C5.99825 4.38585 6.31665 4.41721 6.60595 4.53706C6.8953 4.65691 7.1426 4.85987 7.3166 5.12025C7.4906 5.38065 7.5835 5.6868 7.5835 6C7.5835 6.41995 7.41665 6.82275 7.1197 7.1197C6.82275 7.41665 6.41995 7.5835 6 7.5835ZM8.53565 2.89437C8.4229 2.89437 8.3127 2.9278 8.21895 2.99043C8.12525 3.05306 8.05215 3.14208 8.00905 3.24623C7.9659 3.35039 7.9546 3.465 7.9766 3.57557C7.9986 3.68614 8.05285 3.7877 8.1326 3.86741C8.2123 3.94713 8.31385 4.00142 8.42445 4.02341C8.535 4.0454 8.6496 4.03411 8.75375 3.99097C8.8579 3.94783 8.94695 3.87477 9.00955 3.78104C9.0722 3.6873 9.10565 3.5771 9.10565 3.46437C9.10565 3.31319 9.0456 3.16821 8.9387 3.06132C8.8318 2.95442 8.6868 2.89437 8.53565 2.89437Z"
    fill="currentColor"
  />
</svg>

<svg xmlns="http://www.w3.org/2000/svg" width="12" height="12" fill="none" data-fui-icon="true" viewBox="0 0 12 12"><path fill="currentColor" d="M6 2.106c1.268 0 1.418.005 1.92.028.3.003.599.058.881.163.207.076.393.198.546.356.158.153.28.34.356.546.104.282.16.58.164.882.022.5.027.65.027 1.919 0 1.268-.005 1.418-.027 1.92-.004.3-.06.599-.164.881a1.57 1.57 0 0 1-.902.902c-.282.104-.58.16-.882.164-.5.022-.65.027-1.919.027-1.268 0-1.419-.005-1.92-.027a2.6 2.6 0 0 1-.882-.164 1.5 1.5 0 0 1-.545-.356 1.5 1.5 0 0 1-.356-.546 2.6 2.6 0 0 1-.163-.882c-.023-.5-.028-.65-.028-1.919 0-1.268.005-1.419.028-1.92.003-.3.058-.599.163-.881.076-.207.198-.393.356-.546.153-.158.34-.28.546-.356.282-.105.58-.16.882-.163.5-.023.65-.028 1.919-.028m0-.856c-1.29 0-1.452.006-1.958.028a3.5 3.5 0 0 0-1.153.221c-.317.12-.605.307-.842.549a2.3 2.3 0 0 0-.548.84c-.138.37-.212.76-.22 1.154-.024.506-.029.668-.029 1.958s.006 1.452.028 1.958c.008.394.083.784.221 1.153.12.317.307.605.549.842.237.242.524.429.84.548.37.138.76.212 1.154.22.506.024.668.029 1.958.029s1.452-.006 1.958-.028a3.5 3.5 0 0 0 1.153-.221 2.43 2.43 0 0 0 1.39-1.39c.138-.369.212-.759.22-1.153.024-.506.029-.668.029-1.958s-.006-1.452-.028-1.958a3.5 3.5 0 0 0-.221-1.153 2.3 2.3 0 0 0-.549-.842 2.3 2.3 0 0 0-.84-.548 3.5 3.5 0 0 0-1.154-.22C7.452 1.255 7.29 1.25 6 1.25m0 2.31a2.44 2.44 0 1 0 0 4.88 2.44 2.44 0 0 0 0-4.88m0 4.024a1.583 1.583 0 1 1 0-3.167 1.583 1.583 0 0 1 0 3.167m2.536-4.69a.57.57 0 1 0 0 1.14.57.57 0 0 0 0-1.14"/></svg>
